static/images/tech-icons/dark/terraform-logo.svg

<svg height="23" viewBox="0 0 94 23" width="94" xmlns="http://www.w3.org/2000/svg"><g><path d="m30.6675 7.3275h-3.33375v-1.99125h8.92875v1.99125h-3.3375v9.94875h-2.25"/><path d="m38.32125 15.66375c.905625-.0045 1.80525-.143625 2.67-.4125l.34125 1.65c-1.029375.37125-2.11575.55875-3.21.5550552-2.74125 0-3.69375-1.2713052-3.69375-3.3750552v-2.30625c0-1.845.825-3.405 3.6225-3.405s3.42375 1.63125 3.42375 3.51375v1.875h-4.875v.45c.01875 1.0425.39375 1.455 1.72125 1.455zm-1.7025-3.66375h2.77875v-.4425c0-.825-.25125-1.39875-1.3275-1.39875s-1.45125.57375-1.45125 1.39875zm10.7025-1.62375c-.8055.36375-1.581375.78825-2.32125 1.27125v5.625h-2.18625v-8.72625h1.845l.1425.9675c.711375-.4815 1.483125-.867375 2.295-1.1475zm5.34 0c-.8025.36375-1.5765.788625-2.31375 1.27125v5.625h-2.18625v-8.72625h1.845l.1425.9675c.711375-.4815 1.483125-.867375 2.295-1.1475zm7.31625 6.9h-1.7925l-.16125-.5925c-.77325.50325-1.67625.77175-2.59875.7725-1.59375 0-2.27625-1.095-2.27625-2.59875 0-1.77375.7725-2.45625 2.54625-2.45625h2.09625v-.915c0-.9675-.27-1.30875-1.66875-1.30875-.81375.009-1.62375.09975-2.41875.27l-.27-1.66875c.97725-.27 1.986-.40875 3-.4125 2.74125 0 3.55125.9675 3.55125 3.15375zm-2.18625-3.3h-1.6125c-.71625 0-.915.19875-.915.85875s.19875.8775.8775.8775c.579-.009 1.14675-.1635 1.65-.45zm8.90625-7.42125c-.4125-.088875-.834-.1365-1.25625-.1425-.85875 0-.98625.375-.98625 1.03875v1.095h2.22375l-.12375 1.74h-2.09625v6.99h-2.18625v-6.99h-1.39875v-1.74h1.39875v-1.21875c0-1.81125.84375-2.70754365 2.77875-2.70754365.63375-.00220635 1.2645.08254365 1.875.25129365zm4.2675 10.90125c-3 0-3.79875-1.65-3.79875-3.4425v-2.205c0-1.7925.80625-3.4425 3.79875-3.4425s3.7987629 1.65 3.7987629 3.4425v2.205c.0037371 1.7925-.8062629 3.4425-3.7987629 3.4425zm0-7.22625c-1.16625 0-1.6125.52125-1.6125 1.5v2.3475c0 .98625.45 1.5 1.6125 1.5s1.6125-.52125 1.6125-1.5v-2.34c0-.98625-.44625-1.5075-1.6125-1.5075zm9.4275.14625c-.8025.36375-1.5765.788625-2.31375 1.27125v5.625h-2.18625v-8.72625h1.845l.1425.9675c.711375-.4815 1.48275-.867375 2.295-1.1475zm6.0075 6.9v-6.09375c0-.465-.19875-.6975-.6975-.6975-.801375.09525-1.575.35025-2.27625.75v6.04125h-2.18625v-8.73h1.66875l.21375.75c1.08975-.55125 2.283-.868125 3.5025-.93.691125-.06525 1.35.3075 1.65.93375 1.09125-.55875 2.289-.8775 3.51375-.93375 1.45125 0 1.9725 1.02 1.9725 2.58v6.33h-2.18625v-6.09375c0-.465-.19875-.6975-.6975-.6975-.8025.0885-1.578.343875-2.27625.75v6.04125z"/><path d="m13.65 14.67375 6.15-3.5475v-7.10625l-6.15 3.555"/><path d="m6.825 4.02 6.15 3.555v7.09875l-6.15-3.55125"/><path d="m0 7.15875 6.15 3.55125v-7.1025l-6.15-3.55125m6.825 18.94875 6.15 3.55125v-7.1025l-6.15-3.55125"/></g></svg>

<?xml version="1.0" encoding="UTF-8"?>
<svg width="94px" height="23px" viewBox="0 0 94 23" version="1.1" xmlns="http://www.w3.org/2000/svg" xmlns:xlink="http://www.w3.org/1999/xlink">
    <title>terraform-logo</title>
    <g id="terraform-logo" stroke="none" stroke-width="1" fill="none" fill-rule="evenodd">
        <g id="Group" fill="#000000" fill-rule="nonzero">
            <polyline id="Path" points="30.6675 7.3275 27.33375 7.3275 27.33375 5.33625 36.2625 5.33625 36.2625 7.3275 32.925 7.3275 32.925 17.27625 30.675 17.27625"></polyline>
            <path d="M38.32125,15.66375 C39.226875,15.65925 40.1265,15.520125 40.99125,15.25125 L41.3325,16.90125 C40.303125,17.2725 39.21675,17.46 38.1225,17.4563052 C35.38125,17.4563052 34.42875,16.185 34.42875,14.08125 L34.42875,11.775 C34.42875,9.93 35.25375,8.37 38.05125,8.37 C40.84875,8.37 41.475,10.00125 41.475,11.88375 L41.475,13.75875 L36.6,13.75875 L36.6,14.20875 C36.61875,15.25125 36.99375,15.66375 38.32125,15.66375 Z M36.61875,12 L39.3975,12 L39.3975,11.5575 C39.3975,10.7325 39.14625,10.15875 38.07,10.15875 C36.99375,10.15875 36.61875,10.7325 36.61875,11.5575 L36.61875,12 L36.61875,12 Z M47.32125,10.37625 C46.51575,10.74 45.739875,11.1645 45,11.6475 L45,17.2725 L42.81375,17.2725 L42.81375,8.54625 L44.65875,8.54625 L44.80125,9.51375 C45.512625,9.03225 46.284375,8.646375 47.09625,8.36625 L47.32125,10.37625 Z M52.66125,10.37625 C51.85875,10.74 51.08475,11.164875 50.3475,11.6475 L50.3475,17.2725 L48.16125,17.2725 L48.16125,8.54625 L50.00625,8.54625 L50.14875,9.51375 C50.860125,9.03225 51.631875,8.646375 52.44375,8.36625 L52.66125,10.37625 Z M59.9775,17.27625 L58.185,17.27625 L58.02375,16.68375 C57.2505,17.187 56.3475,17.4555 55.425,17.45625 C53.83125,17.45625 53.14875,16.36125 53.14875,14.8575 C53.14875,13.08375 53.92125,12.40125 55.695,12.40125 L57.79125,12.40125 L57.79125,11.48625 C57.79125,10.51875 57.52125,10.1775 56.1225,10.1775 C55.30875,10.1865 54.49875,10.27725 53.70375,10.4475 L53.43375,8.77875 C54.411,8.50875 55.41975,8.37 56.43375,8.36625 C59.175,8.36625 59.985,9.33375 59.985,11.52 L59.9775,17.27625 L59.9775,17.27625 Z M57.79125,13.97625 L56.17875,13.97625 C55.4625,13.97625 55.26375,14.175 55.26375,14.835 C55.26375,15.495 55.4625,15.7125 56.14125,15.7125 C56.72025,15.7035 57.288,15.549 57.79125,15.2625 L57.79125,13.97625 L57.79125,13.97625 Z M66.6975,6.555 C66.285,6.466125 65.8635,6.4185 65.44125,6.4125 C64.5825,6.4125 64.455,6.7875 64.455,7.45125 L64.455,8.54625 L66.67875,8.54625 L66.555,10.28625 L64.45875,10.28625 L64.45875,17.27625 L62.2725,17.27625 L62.2725,10.28625 L60.87375,10.28625 L60.87375,8.54625 L62.2725,8.54625 L62.2725,7.3275 C62.2725,5.51625 63.11625,4.61995635 65.05125,4.61995635 C65.685,4.61775 66.31575,4.7025 66.92625,4.87125 L66.6975,6.555 L66.6975,6.555 Z M70.965,17.45625 C67.965,17.45625 67.16625,15.80625 67.16625,14.01375 L67.16625,11.80875 C67.16625,10.01625 67.9725,8.36625 70.965,8.36625 C73.9575,8.36625 74.7637629,10.01625 74.7637629,11.80875 L74.7637629,14.01375 C74.7675,15.80625 73.9575,17.45625 70.965,17.45625 Z M70.965,10.23 C69.79875,10.23 69.3525,10.75125 69.3525,11.73 L69.3525,14.0775 C69.3525,15.06375 69.8025,15.5775 70.965,15.5775 C72.1275,15.5775 72.5775,15.05625 72.5775,14.0775 L72.5775,11.7375 C72.5775,10.75125 72.13125,10.23 70.965,10.23 L70.965,10.23 Z M80.3925,10.37625 C79.59,10.74 78.816,11.164875 78.07875,11.6475 L78.07875,17.2725 L75.8925,17.2725 L75.8925,8.54625 L77.7375,8.54625 L77.88,9.51375 C78.591375,9.03225 79.36275,8.646375 80.175,8.36625 L80.3925,10.37625 Z M86.4,17.27625 L86.4,11.1825 C86.4,10.7175 86.20125,10.485 85.7025,10.485 C84.901125,10.58025 84.1275,10.83525 83.42625,11.235 L83.42625,17.27625 L81.24,17.27625 L81.24,8.54625 L82.90875,8.54625 L83.1225,9.29625 C84.21225,8.745 85.4055,8.428125 86.625,8.36625 C87.316125,8.301 87.975,8.67375 88.275,9.3 C89.36625,8.74125 90.564,8.4225 91.78875,8.36625 C93.24,8.36625 93.76125,9.38625 93.76125,10.94625 L93.76125,17.27625 L91.575,17.27625 L91.575,11.1825 C91.575,10.7175 91.37625,10.485 90.8775,10.485 C90.075,10.5735 89.2995,10.828875 88.60125,11.235 L88.60125,17.27625 L86.4,17.27625 L86.4,17.27625 Z" id="Shape"></path>
            <polyline id="Path" points="13.65 14.67375 19.8 11.12625 19.8 4.02 13.65 7.575"></polyline>
            <polyline id="Path" points="6.825 4.02 12.975 7.575 12.975 14.67375 6.825 11.1225"></polyline>
            <path d="M0,7.15875 L6.15,10.71 L6.15,3.6075 L0,0.05625 M6.825,19.005 L12.975,22.55625 L12.975,15.45375 L6.825,11.9025" id="Shape"></path>
        </g>
    </g>
</svg>
